build/documents/DocProcessingSolid.svg

<svg xmlns="http://www.w3.org/2000/svg" fill="none" viewBox="0 0 24 24" focusable="false"><path d="M0 0H24V24H0z"/><path fill="#74767B" fill-rule="evenodd" d="M17.0001 3C18.6569 3 20.0001 4.34315 20.0001 6L20.0001 18C20.0001 19.6569 18.6569 21 17.0001 21L7.00684 21C5.34998 21 4.00684 19.6569 4.00684 18L4.00684 6C4.00684 4.34315 5.34998 3 7.00684 3L17.0001 3ZM12.291 14.3952C12.021 14.6852 11.561 14.6952 11.281 14.4152L9.23651 12.4766C8.98651 12.2266 8.98651 11.8066 9.23651 11.5566C9.48651 11.3066 9.90651 11.3066 10.1565 11.5566L11.761 13.0552L14.8517 9.92845C15.0917 9.65845 15.5117 9.64845 15.7717 9.88844C16.0317 10.1284 16.0517 10.5384 15.8117 10.8084L12.291 14.3952Z"/></svg>

<svg xmlns="http://www.w3.org/2000/svg" fill="none" viewBox="0 0 24 24" focusable="false"><path fill="#74767B" fill-rule="evenodd" d="M17 3c1.65 0 3 1.34 3 3v12c0 1.65-1.35 3-3 3H7c-1.65 0-3-1.35-3-3V6c0-1.66 1.35-3 3-3zm-4.71 11.39c-.27.29-.73.3-1.01.02l-2.05-1.94a.66.66 0 0 1 0-.92c.25-.25.67-.25.92 0l1.61 1.5 3.09-3.13a.65.65 0 0 1 .92-.04c.26.24.28.65.04.92z"/></svg>
